src/lib/packages/icons/src/assets/filled/money-withdrawal.svg

<svg width="24" height="24" viewBox="0 0 24 24" fill="none" xmlns="http://www.w3.org/2000/svg">
<path d="M21.75 4.5V10.45C21.75 11.86 20.91 12.7 19.5 12.7H19.3C19.134 12.7 19 12.566 19 12.4V5.79999C19 5.63399 18.866 5.5 18.7 5.5H5.29999C5.13399 5.5 5 5.63399 5 5.79999V12.4C5 12.566 4.86601 12.7 4.70001 12.7H4.5C3.09 12.7 2.25 11.86 2.25 10.45V4.5C2.25 3.09 3.09 2.25 4.5 2.25H19.5C20.91 2.25 21.75 3.09 21.75 4.5ZM17.5 7.29999V18C17.5 19.657 16.157 21 14.5 21H9.5C7.843 21 6.5 19.657 6.5 18V7.29999C6.5 7.13399 6.63399 7 6.79999 7H17.2C17.366 7 17.5 7.13399 17.5 7.29999ZM13 17.505C13 16.953 12.552 16.505 12 16.505C11.448 16.505 11 16.953 11 17.505C11 18.057 11.448 18.505 12 18.505C12.552 18.505 13 18.058 13 17.505ZM14.25 12.25C14.25 11.007 13.243 10 12 10C10.757 10 9.75 11.007 9.75 12.25C9.75 13.493 10.757 14.5 12 14.5C13.243 14.5 14.25 13.493 14.25 12.25Z" fill="currentColor"/>
</svg>

<svg xmlns="http://www.w3.org/2000/svg" width="24" height="24" fill="none"><path fill="currentColor" d="M21.75 4.5v5.95c0 1.41-.84 2.25-2.25 2.25h-.2a.3.3 0 0 1-.3-.3V5.8a.3.3 0 0 0-.3-.3H5.3a.3.3 0 0 0-.3.3v6.6a.3.3 0 0 1-.3.3h-.2c-1.41 0-2.25-.84-2.25-2.25V4.5c0-1.41.84-2.25 2.25-2.25h15c1.41 0 2.25.84 2.25 2.25ZM17.5 7.3V18a3 3 0 0 1-3 3h-5a3 3 0 0 1-3-3V7.3a.3.3 0 0 1 .3-.3h10.4a.3.3 0 0 1 .3.3ZM13 17.505a1 1 0 1 0-2 0 1 1 0 0 0 2 0Zm1.25-5.255a2.25 2.25 0 1 0-4.5 0 2.25 2.25 0 0 0 4.5 0Z"/></svg>
